X: 21382
M: 2/4
L: 1/16
K: D
V: 1 name="2"
|: cd |\
e6 fg | a4 afdf | A6 Bc | defg a2a2 |\
e6 fg | a4 afdf | A6 Bc | d2f2"^D.C."d2 :|


